docs/img/calculations.svg

<svg width="90" height="103" viewBox="0 0 90 103" fill="none" xmlns="http://www.w3.org/2000/svg">
<path fill-rule="evenodd" clip-rule="evenodd" d="M11.1494 13.9117C12.2644 12.1667 13.4714 10.4457 14.7384 8.79969C15.2534 8.13069 16.2134 8.00569 16.8824 8.51969C17.5524 9.03569 17.6774 9.99469 17.1624 10.6647C15.9494 12.2407 14.7944 13.8877 13.7274 15.5577C13.2734 16.2697 12.3274 16.4777 11.6154 16.0237C11.5204 15.9627 11.4334 15.8917 11.3564 15.8147C10.8594 15.3187 10.7564 14.5277 11.1494 13.9117ZM5.38042 24.9817C6.17442 23.0637 7.06342 21.1597 8.02242 19.3197C8.41242 18.5707 9.33642 18.2807 10.0844 18.6707C10.8344 19.0617 11.1244 19.9847 10.7334 20.7337C9.81642 22.4937 8.96542 24.3167 8.20642 26.1517C7.88342 26.9327 6.98842 27.3027 6.20842 26.9787C6.01742 26.8997 5.85042 26.7867 5.71242 26.6477C5.28842 26.2247 5.13742 25.5707 5.38042 24.9817ZM1.63142 36.8877C2.08042 34.8597 2.62342 32.8297 3.24542 30.8527C3.49942 30.0477 4.35742 29.5997 5.16342 29.8537C5.96842 30.1067 6.41642 30.9657 6.16242 31.7707C5.56642 33.6627 5.04742 35.6067 4.61742 37.5487C4.43542 38.3727 3.61942 38.8927 2.79442 38.7107C2.49942 38.6457 2.24342 38.4997 2.04542 38.3007C1.68842 37.9427 1.51542 37.4177 1.63142 36.8877ZM0.00541568 49.2627C0.0964157 47.1907 0.279416 45.0977 0.549416 43.0397C0.660416 42.2027 1.42842 41.6127 2.26542 41.7237C3.10242 41.8337 3.69142 42.6017 3.58242 43.4387C3.32342 45.4077 3.14742 47.4127 3.06042 49.3957C3.02342 50.2397 2.30942 50.8937 1.46542 50.8567C1.06842 50.8397 0.712416 50.6717 0.452416 50.4107C0.159416 50.1177 -0.0145843 49.7087 0.00541568 49.2627ZM0.538416 61.7297C0.271416 59.6747 0.0904157 57.5807 0.00141568 55.5077C-0.0345843 54.6637 0.620416 53.9507 1.46342 53.9147C2.30742 53.8787 3.02042 54.5337 3.05642 55.3777C3.14142 57.3627 3.31442 59.3667 3.57042 61.3357C3.67942 62.1737 3.08842 62.9397 2.25242 63.0497C1.76242 63.1127 1.29642 62.9377 0.972416 62.6137C0.742416 62.3837 0.583416 62.0787 0.538416 61.7297ZM3.21842 73.9187C2.59842 71.9397 2.05842 69.9097 1.61242 67.8827C1.43142 67.0577 1.95342 66.2427 2.77742 66.0607C3.60242 65.8797 4.41842 66.4017 4.59942 67.2257C5.02542 69.1667 5.54342 71.1097 6.13642 73.0047C6.38842 73.8097 5.94042 74.6687 5.13442 74.9207C4.57242 75.0977 3.98442 74.9317 3.59542 74.5427C3.42642 74.3737 3.29442 74.1627 3.21842 73.9187ZM7.97942 85.4567C7.02342 83.6167 6.13642 81.7107 5.34542 79.7917C5.02342 79.0117 5.39542 78.1167 6.17542 77.7957C6.95642 77.4737 7.85042 77.8457 8.17242 78.6257C8.92942 80.4617 9.77742 82.2857 10.6924 84.0467C11.0824 84.7957 10.7904 85.7187 10.0414 86.1077C9.43442 86.4237 8.71342 86.2927 8.25442 85.8337C8.14742 85.7247 8.05342 85.5997 7.97942 85.4567ZM14.6814 95.9847C13.4174 94.3377 12.2114 92.6157 11.0994 90.8687C10.6464 90.1557 10.8554 89.2107 11.5674 88.7577C12.2804 88.3037 13.2254 88.5147 13.6784 89.2257C14.7434 90.8977 15.8974 92.5467 17.1074 94.1237C17.6214 94.7937 17.4954 95.7537 16.8254 96.2667C16.2094 96.7397 15.3494 96.6717 14.8154 96.1377C14.7674 96.0907 14.7234 96.0397 14.6814 95.9847Z" fill="#F86703"/>
<mask id="mask0_0_2376" style="mask-type:alpha" maskUnits="userSpaceOnUse" x="20" y="92" width="11" height="11">
<path fill-rule="evenodd" clip-rule="evenodd" d="M30.2959 102.237H20.3184L20.3184 92.2593H30.2959V102.237Z" fill="white"/>
</mask>
<g mask="url(#mask0_0_2376)">
<path fill-rule="evenodd" clip-rule="evenodd" d="M20.7661 101.789C21.3631 102.387 22.3311 102.387 22.9281 101.789L29.8481 94.8698C30.4451 94.2718 30.4451 93.3048 29.8481 92.7078C29.2501 92.1098 28.2821 92.1098 27.6851 92.7078L20.7661 99.6268C20.1691 100.224 20.1691 101.192 20.7661 101.789Z" fill="#F15A28"/>
</g>
<path fill-rule="evenodd" clip-rule="evenodd" d="M63.8684 54.074L68.4814 58.686C69.0784 59.284 69.0784 60.252 68.4814 60.849L32.1544 97.177C31.5574 97.773 30.5894 97.773 29.9924 97.177L25.3794 92.563C24.7824 91.966 24.7824 90.998 25.3794 90.401L61.7064 54.074C62.3034 53.476 63.2714 53.476 63.8684 54.074Z" fill="#FFC105"/>
<path fill-rule="evenodd" clip-rule="evenodd" d="M84.0503 33.8923L88.6633 38.5043C89.2603 39.1023 89.2603 40.0703 88.6633 40.6673L78.2843 51.0463C77.6873 51.6433 76.7193 51.6433 76.1223 51.0463L71.5083 46.4333C70.9113 45.8363 70.9113 44.8683 71.5083 44.2713L81.8883 33.8923C82.4853 33.2943 83.4533 33.2943 84.0503 33.8923Z" fill="#FFA608"/>
<path fill-rule="evenodd" clip-rule="evenodd" d="M19.8403 0.0299684L31.3733 2.33697C31.6693 2.39597 31.9413 2.54197 32.1543 2.75497L71.9413 42.542C72.5383 43.138 72.5383 44.106 71.9413 44.704L62.7153 53.929C62.1173 54.527 61.1503 54.527 60.5523 53.929L20.7663 14.143C20.5523 13.929 20.4073 13.657 20.3473 13.362L18.0413 1.82897C17.9413 1.32797 18.0983 0.808968 18.4593 0.447968C18.8203 0.0869684 19.3393 -0.0710316 19.8403 0.0299684Z" fill="#FFA608"/>
<path fill-rule="evenodd" clip-rule="evenodd" d="M25.3794 9.52993L65.1664 49.3169C65.7634 49.9139 66.7314 49.9139 67.3284 49.3169C67.9254 48.7189 67.9254 47.7519 67.3284 47.1539L27.5414 7.36793C26.9444 6.76993 25.9764 6.76993 25.3794 7.36793C24.7824 7.96493 24.7824 8.93193 25.3794 9.52993Z" fill="#F86703"/>
<path fill-rule="evenodd" clip-rule="evenodd" d="M19.8403 0.0299684L31.3733 2.33697C31.6743 2.39697 31.9423 2.54797 32.1523 2.75697L20.7663 14.143C20.5563 13.933 20.4083 13.663 20.3473 13.362L18.0413 1.82897C17.9413 1.32797 18.0983 0.808968 18.4593 0.447968C18.8203 0.0869684 19.3393 -0.0710316 19.8403 0.0299684Z" fill="#FFD1A9"/>
<path fill-rule="evenodd" clip-rule="evenodd" d="M19.8403 0.0299684L23.7233 0.805968L18.8183 5.71197L18.0413 1.82897C17.9413 1.32797 18.0983 0.808968 18.4593 0.447968C18.8213 0.0869684 19.3393 -0.0710316 19.8403 0.0299684Z" fill="#F86703"/>
<path fill-rule="evenodd" clip-rule="evenodd" d="M78.8597 43.695C83.5887 48.424 83.5887 56.12 78.8597 60.849C74.1307 65.579 66.4347 65.579 61.7057 60.849C56.9757 56.12 56.9757 48.424 61.7057 43.695C66.4347 38.965 74.1307 38.965 78.8597 43.695Z" fill="#F86703"/>
<path fill-rule="evenodd" clip-rule="evenodd" d="M65.7412 56.8131C66.3382 57.4101 67.3062 57.4101 67.9042 56.8131C68.5002 56.2151 68.5012 55.2481 67.9042 54.6501C66.7512 53.4981 66.7512 51.6231 67.9042 50.4691C69.0562 49.3171 70.9312 49.3171 72.0842 50.4691C72.6812 51.0671 73.6492 51.0671 74.2462 50.4691C74.8432 49.8731 74.8442 48.9051 74.2462 48.3071C71.9012 45.9621 68.0862 45.9621 65.7412 48.3071C63.3962 50.6521 63.3962 54.4671 65.7412 56.8131Z" fill="white"/>
</svg>

<svg width="90" height="103" viewBox="0 0 90 103" fill="none" xmlns="http://www.w3.org/2000/svg"><path fill-rule="evenodd" clip-rule="evenodd" d="M11.15 13.912A71.77 71.77 0 0114.737 8.8a1.53 1.53 0 012.424 1.865 68.697 68.697 0 00-3.435 4.893 1.53 1.53 0 01-2.578-1.646zm-5.77 11.07a71.335 71.335 0 012.642-5.662 1.529 1.529 0 112.711 1.414 68.158 68.158 0 00-2.527 5.418 1.528 1.528 0 01-2.494.496 1.53 1.53 0 01-.332-1.666zM1.631 36.888a72.183 72.183 0 011.614-6.035 1.53 1.53 0 012.917.918 68.846 68.846 0 00-1.545 5.778 1.529 1.529 0 01-2.986-.661zM.005 49.263C.096 47.19.28 45.098.55 43.04a1.53 1.53 0 013.033.399 69.104 69.104 0 00-.522 5.957 1.53 1.53 0 01-3.055-.133zM.538 61.73a72.708 72.708 0 01-.537-6.222 1.53 1.53 0 113.055-.13c.085 1.985.258 3.989.514 5.958a1.53 1.53 0 01-3.032.394zm2.68 12.189a72.082 72.082 0 01-1.606-6.036 1.53 1.53 0 012.987-.657 68.848 68.848 0 001.537 5.779 1.53 1.53 0 01-2.918.914zM7.98 85.457a71.156 71.156 0 01-2.634-5.665 1.529 1.529 0 112.827-1.166 68.154 68.154 0 002.52 5.42 1.53 1.53 0 01-2.713 1.41zm6.702 10.528a71.522 71.522 0 01-3.582-5.116 1.53 1.53 0 012.58-1.643 68.806 68.806 0 003.428 4.898 1.528 1.528 0 11-2.426 1.86z" fill="#F86703"/><mask id="mask0_0_2376" style="mask-type:alpha" maskUnits="userSpaceOnUse" x="20" y="92" width="11" height="11"><path fill-rule="evenodd" clip-rule="evenodd" d="M30.296 102.237h-9.978v-9.978h9.978v9.978z" fill="#fff"/></mask><g mask="url(#mask0_0_2376)"><path fill-rule="evenodd" clip-rule="evenodd" d="M20.766 101.789a1.527 1.527 0 002.162 0l6.92-6.92a1.529 1.529 0 10-2.163-2.161l-6.919 6.919a1.529 1.529 0 000 2.162z" fill="#F15A28"/></g><path fill-rule="evenodd" clip-rule="evenodd" d="M63.868 54.074l4.613 4.612a1.53 1.53 0 010 2.163L32.154 97.177a1.53 1.53 0 01-2.162 0l-4.613-4.614a1.529 1.529 0 010-2.162l36.327-36.327a1.527 1.527 0 012.162 0z" fill="#FFC105"/><path fill-rule="evenodd" clip-rule="evenodd" d="M84.05 33.892l4.613 4.612a1.53 1.53 0 010 2.163l-10.379 10.38a1.529 1.529 0 01-2.162 0l-4.614-4.614a1.529 1.529 0 010-2.162l10.38-10.379a1.527 1.527 0 012.162 0z" fill="#FFA608"/><path fill-rule="evenodd" clip-rule="evenodd" d="M19.84.03l11.533 2.307c.296.059.568.205.781.418l39.787 39.787a1.529 1.529 0 010 2.162l-9.226 9.225a1.528 1.528 0 01-2.163 0L20.766 14.143a1.537 1.537 0 01-.419-.781L18.041 1.829a1.53 1.53 0 011.8-1.799z" fill="#FFA608"/><path fill-rule="evenodd" clip-rule="evenodd" d="M25.38 9.53l39.786 39.787a1.529 1.529 0 102.162-2.163L27.541 7.368A1.529 1.529 0 0025.38 9.53z" fill="#F86703"/><path fill-rule="evenodd" clip-rule="evenodd" d="M19.84.03l11.533 2.307c.301.06.57.211.78.42L20.765 14.143c-.21-.21-.358-.48-.419-.781L18.041 1.829a1.53 1.53 0 011.8-1.799z" fill="#FFD1A9"/><path fill-rule="evenodd" clip-rule="evenodd" d="M19.84.03l3.883.776-4.905 4.906-.777-3.883a1.53 1.53 0 011.8-1.799zm59.02 43.665c4.729 4.729 4.729 12.425 0 17.154-4.73 4.73-12.425 4.73-17.154 0-4.73-4.729-4.73-12.425 0-17.154 4.729-4.73 12.425-4.73 17.154 0z" fill="#F86703"/><path fill-rule="evenodd" clip-rule="evenodd" d="M65.741 56.813a1.53 1.53 0 002.163-2.163 2.96 2.96 0 010-4.18 2.96 2.96 0 014.18 0 1.528 1.528 0 102.162-2.162 6.02 6.02 0 00-8.505 0 6.022 6.022 0 000 8.505z" fill="#fff"/></svg>
